!!!!SEGMENT: pl-wtm--r-2131_wysocki-kasper-napoleon--marsz.krn
!!!cenid: 18xx:4362
!!!COM: Wysocki, Kasper Napoleon
!!!COM-rismID: pe41024789
!!!CDT: 1810/12/06-1850/09/21
!!!CNT: Polish
!!!OTL: Marsz
!!!PDT:
!!!AGN:
!!!SMS-siglum: PL-Wtm
!!!SMS-shelfmark: R 2131
!!!SMS-shelfwork: W
!!!SMS-variant:
!!!SMS-altvar:
!!!NIFC-rismSourceID: 1001139247
!!!NIFC-rismChildID: 1001139247
!!!NIFC-islandoraID: pl-wtm:29908
!!!URL-pdf-islandora: https://repozytorium.nifc.pl/islandora/object/pl-wtm:29908/datastream/PDF/view
!!!URL-scan: https://polish.musicsources.pl/pl/lokalizacje/galeria/rekopisy/6561/2 @EN{Scan on Polish Music Sources Website} @PL{Skany w portalu Dziedzictwo Muzyki Polskiej w otwartym dostępie}
!!!ONB-nifc:
!!!AIN: 2 piano
!!!key: F
**kern	**kern	**dynam
*part2	*part1	*part1
*staff2	*staff1	*
*I"fortepian	*I"fortepian	*
*I'[pf]	*I'[pf]	*
*ICklav	*ICklav	*
*Ipiano	*Ipiano	*
*>[A,A1,A,A2,B]	*>[A,A1,A,A2,B]	*>[A,A1,A,A2,B]
*>A	*>A	*>A
*clefF4	*clefG2	*
*k[b-]	*k[b-]	*
*F:	*F:	*
*M4/4	*M4/4	*
*met(c)	*met(c)	*
=1	=1	=1
!	!LO:TX:a:t=Marsz:color=grey	!
!	!LO:TX:t=P:problem: Marsz dopisany ołówkiem	!
4FF/ 4C 4F	4F/ 4c 4f	p
4r	4r	.
4CC/ 4GG 4C	4c/ 4e 4g	.
4r	4r	.
=2	=2	=2
4FF/ 4C 4F	4c/ 4f 4a	.
4FF/ 4C 4F	4A/ 4c 4f	.
4r	4r	.
8.BB-/L 8.F	8.B-/L 8.d 8.f	sf
16BB-/Jk 16F	16B-/Jk 16d 16f	p
=3	=3	=3
4FF/ 4F	4c/ 4f 4a	.
4FF/ 4F	4A/ 4c 4f	.
4r	4r	.
8.BB-/L 8.F	8.B-/L 8.d 8.f	sf
16BB-/Jk 16F	16B-/Jk 16d 16f 16b-	p
=4	=4	=4
4FF/ 4F	4c/ 4f 4a	.
4FF/ 4F	4A/ 4c 4f	.
2r	2r	.
=5	=5	=5
4C\ 4G	4c/ 4e 4g 4cc	mf
8.r	8.r	.
16C\ 16G	16c/ 16e 16g 16cc	.
4GG\ 4G	4d/ 4g 4bn 4dd	.
8.r	8.r	.
16GG/ 16G	16d/ 16g 16b 16dd	.
!!LO:LB:g=original	!	!
=6	=6	=6
8C/L 8G	4e/ 4g 4cc 4ee	.
8CC/	.	.
8EE/	4c/ 4e 4g 4cc	.
8GG/J	.	.
4C/	4r	.
8.C\L 8.A 8.c	8.f\L 8.a 8.cc	.
16C\Jk 16A 16c	16f\Jk 16a 16cc 16ff	.
=7	=7	=7
8C\ 8G 8c	4e/ 4g 4cc 4ee	.
8CC/L	.	.
8EE/	4c/ 4e 4g 4cc	.
8GG/J	.	.
4C/	4r	.
8.C\L 8.A 8.c	8.f\L 8.a 8.cc	.
16C\Jk 16A 16c	16f\Jk 16a 16cc 16ff	.
=8	=8	=8
4C\ 4G 4c	4e\ 4g 4cc 4ee	.
2.C\ 2.G 2.B- 2.e	4.cc\ 4.ee 4.gg 4.ccc	.
.	8bn\L 8bbn	.
.	8b-X\ 8bb-X	.
.	8g\J 8gg	.
=9	=9	=9
8FF:/L 8AA: 8C: 8F:	2f\ 2cc 2ff	f
!LO:TX:a:i:t=sempre stacc.	!	!
8C/	.	.
8AA/	.	.
8FF/J	.	.
8CC/L 8EE 8GG 8C	4.g\ 4.cc 4.ee 4.gg	.
8GG/	.	.
8EE/	.	.
8CC/J	8g\ 8cc 8ee 8gg	.
!!LO:LB:g=original	!	!
=10	=10	=10
8FFF/L 8CC 8FF	4a\ 4cc 4ff 4aa	.
8FF/	.	.
8AA/	4f\ 4a 4cc 4ff	.
8C/J	.	.
8F/L	4r	.
8FF/J	.	.
8.F\L 8.B- 8.d 8.f	8.b-\L 8.dd 8.ff 8.bb-	sf
16F\Jk 16B- 16d 16f	16dd\Jk 16ff 16bb- 16ddd	.
=11	=11	=11
!LO:TX:t=P:problem:mixed beam	!	!
8F\L 8A 8c 8g	4cc\ 4ff 4aa 4ccc	.
8FF/	.	.
8AA/	4f\ 4cc 4ff	.
8C/J	.	.
8F/L	4r	.
8FF/J	.	.
8.B-\L 8.d 8.f	8.b-\L 8.dd 8.ff 8.bb-	sf
16B-\Jk 16d 16f	16dd\Jk 16ff 16bb- 16ddd	.
=12	=12	=12
!LO:TX:t=P:problem:mixed beam	!	!
8F\L 8A 8c 8f	4cc\ 4ff 4aa 4ccc	.
8FF/	.	.
8AA/	4f\ 4a 4cc 4ff	.
8C/J	.	.
8F/L	2r	.
8C/	.	.
8AA/	.	.
8FF/J	.	.
=13	=13	=13
*^	*	*
4D/	8DD:\L 8FF: 8AA: 8D:	2a\ 2dd 2ff 2aa	ff
.	8F\	.	.
2.ryy	8A\	.	.
.	8d\J	.	.
.	8DD\L 8FF#X 8GG 8BBn 8D	4..bn\ 4..dd 4..ff 4..gg#X 4..bbn	.
.	8F\	.	.
.	8G#X\	.	.
.	8Bn\J 8d	.	.
.	.	16b\ 16dd 16ff 16gg# 16bb	.
*v	*v	*	*
!!LO:LB:g=original	!	!
=14	=14	=14
8AAA/L 8CC#X 8EE 8AA	4cc#X\ 4ee 4aa 4ccc#X	.
8AA/	.	.
8C#X/	4a\ 4cc# 4ee 4aa	.
8E/J	.	.
8A/L	4r	.
8AA/J	.	.
*	*8va	*
8.AA\L 8.D 8.F 8.A	8.dd/L 8.ff 8.gg#X 8.ddd	.
16AA\Jk 16D 16F 16A	16ff/Jk 16gg# 16ddd 16fff	.
=15	=15	=15
!LO:TX:t=P:problem:mixed beam	!	!
8AA\L 8C#X 8E 8A	4ee/ 4aa 4ccc#X 4eee	.
8AAA/	.	.
8CC#X/	4a/ 4cc#X 4ee 4aa	.
8EE/J	.	.
8AA/L	4r	.
8AAA/J	.	.
8.AA\L 8.D 8.F 8.A	8.dd/L 8.ff 8.gg 8.ddd	.
16AA\Jk 16D 16F 16A	16ff/Jk 16gg 16ddd 16fff	.
=16	=16	=16
4AA\ 4C#X 4E 4A	4ee\ 4aa 4ccc#X 4eee	.
4AAA/ 4AA	4aa\ 4aaa	.
*	*X8va	*
4r	4r	.
!	!LO:TX:a:i:t=loco	!
8.A\L	8.a\L 8.aa	p
16A\Jk	16a\Jk 16aa	.
!!LO:LB:g=original	!	!
=17	=17	=17
4B-\	8b-\ 8bb-	.
.	8r	.
4C\ 4E 4G 4B- 4c	4cc\ 4bb- 4ccc	<
4C\ 4E 4G 4B- 4c	4dd\ 4bb- 4ddd	.
4C\ 4E 4G 4B- 4c	4ee\ 4bb- 4eee	.
=18	=18	=18
*	*ped	*
8FFF:/ 8AAA: 8CC: 8FF:	((4gg\ 4aa [4ccc 4ggg	.
16F\LL 16A 16c	.	.
[16f\JJ	.	.
8F\L 8A 8c 8f]	8ff\)) 8aa 8ccc] 8fff	.
8F\J 8A 8c 8f	8r	.
*rep	*ped	*
8FFF:/ 8AAA: 8CC: 8FF:	((4bn\ [4ff [4aa 4bbn	.
16F\LL 16A 16c	.	.
[16f\JJ	.	.
8F\L 8A 8c 8f]	8cc\)) 8ff] 8aa] 8ccc	.
8F\J 8A 8c 8f	8r	.
*Xrep	*	*
=19	=19	=19
*	*ped	*
8CC/ 8C	((4ee\ 4gg 4bb-X 4eee	.
16G\LL 16B- 16c	.	.
[16e\JJ	.	.
8B-\L 8c 8e]	8dd\)) 8bb- 8ddd	.
8B-\J 8c 8e	8r	.
!LO:TX:t=P:problem:mixed beam	!	!
8CC/L	((4f#X\ [>4cc 4ee 4ff#X	.
16G\L 16B- 16c	.	.
[16e\JJ	.	.
8B-\L 8c 8e]	8g\)) 8cc] 8ee 8gg	.
8B-\J 8c 8e	8r	.
=20	=20	=20
!LO:TX:t=P:problem:mixed beam	!	!
8FFF/L 8FF	(<2b-\ [<2cc (>2ee (>2bb-	.
16F\L 16G 16c	.	.
16e\JJ	.	.
8F\L 8G 8c	.	.
8F\J 8G 8c	.	.
8F\ 8A 8c	8a\) 8cc] 8ff) 8aa)	.
8r	8r	.
8.GG\L 8.G	8.g\L 8.gg	.
16A\Jk	16a\Jk 16aa	.
!!LO:LB:g=original	!	!
=21	=21	=21
8C\L 8c	4b-\ 4bb-	.
8G\J 8c 8e	.	.
!	!	!LO:HP:b:t=cresc
8C\L 8c	4cc\ 4ee 4gg 4ccc	<
8G\J 8c 8e	.	.
8BB-\L 8B-	4dd\ 4ee 4gg 4ddd	.
8G\J 8c 8e	.	.
8BB-\L 8B-	4ee\ 4gg 4ccc 4eee	.
8G\J 8c 8e	.	.
=22	=22	=22
*	*ped	*
8AAA\L 8AA	(4gg\ [4aa [4ccc (4ggg	.
16F\L 16A 16c	.	.
[16f\JJ	.	.
8A\L 8c 8f]	8ff\) 8aa] 8ccc] 8fff)	.
8A\J 8c 8f	8r	.
8BBBn/ 8BBn	(4ee\ [4ff [4aa-X (4eee	.
16F\LL 16A-X 16d	.	.
[16f\JJ	.	.
8A-\L 8d 8f]	8dd\) 8ff] 8aa-] 8ddd)	.
8A-\J 8d 8f	8r	.
=23	=23	=23
*8ba	*	*
8CCC/ 8CC	(<4dd\ (<4ff (>4aan (>4ddd	.
*X8ba	*	*
16F\LL 16An 16c	.	.
[16f\JJ	.	.
*	*8va	*
8A\L 8c 8f]	8ccc\) 8fff) 8aaa) 8cccc)	.
*	*X8va	*
8A\J 8c 8f	8r	.
*8ba	*	*
8CCC/	(4gT\ 4gg	.
*X8ba	*	*
16E\LL 16G 16B- 16c	.	.
16e\JJ	.	.
.	16qqff#X/LL	.
.	16qqgg/JJ	.
8B-\L 8c 8e	8.b-\L) 8.bb-	.
8B-\J 8c 8e	.	.
.	16a\Jk 16aa	.
=24	=24	=24
4F\ 4A 4c	4f\ 4ff	.
4FFF/ 4AAA 4CC 4FF	4ff\ 4aa 4ccc 4fff	.
8FF/ 8F	8f\ 8ff	.
8r	8r	.
4r	4r	.
!!LO:PB:g=original	!	!
=25:|!|:	=25:|!|:	=25:|!|:
*	*^	*
2D-X\ 2A-X 2d-X	2f\ 2a-X 2ff	2ryy	f
2D-\ 2G-X 2An 2c	4.ff/	2g-X\ 2an	.
.	8ee-X/	.	.
*	*v	*v	*
=26	=26	=26
8D-X\L 8F 8A-X 8d-X	8dd-X/L	.
!!LO:SIC:o=16a-\	!	!
16Any\L	16a/L	.
16A\JJ	16a/JJ	.
8A\L	8a/L	.
8A\J	8a/J	.
*tremolo	*tremolo	*
8A\L	8a/L	.
8A\	8a/	.
8A\	8a/	.
8A\J	8a/J	.
*Xtremolo	*Xtremolo	*
=27	=27	=27
4D-X\ 4A-X 4d-X	4f\ 4a-X 4dd-X	.
4D-\ 4A- 4c	4f/ 4a- 4cc	.
4D-\ 4A- 4Bn	4fSS/ 4a- 4bn	>
4D-\ 4G 4B	8.ff\L	.
.	16b\Jk	]]
=28	=28	=28
8C\L 8G 8c	8en/L 8g 8cc	.
16G\L	16g/L	.
16G\JJ	16g/JJ	.
8G\L	8g/L	.
8G\J	8g/J	.
*tremolo	*tremolo	*
8G\L	8g/L	.
8G\	8g/	.
8G\	8g/	.
8G\J	8g/J	.
*Xtremolo	*Xtremolo	*
!!LO:LB:g=original	!	!
=29	=29	=29
2CC/ 2GG 2C	2e\ 2g 2ee	mf
2C\ 2A-X 2c	2f\ 2a-X 2bn	.
=30	=30	=30
8C\L 8G 8c	8cc\L	.
16c\L	16cc\L	.
16c\JJ	16cc\JJ	.
8c\L	8cc\L	.
8c\J	8cc\J	.
*tremolo	*tremolo	*
8c\L	8cc\L	.
8c\	8cc\	.
8c\	8cc\	.
8c\J	8cc\J	.
*Xtremolo	*Xtremolo	*
=31	=31	=31
!	!	!LO:HP:t=cresc
4C\ 4c	8c#X/L 8cc#X	<
.	8c#/J 8cc#	.
4BB-\ 4C 4B-	8d/L 8dd	.
.	8d/J 8dd	.
4AA\ 4C 4A	8d#X/L 8ccn 8dd#X	.
.	8d#/J 8cc 8dd#	.
4GG/ 4E 4G	8e/L 8b- 8cc 8ee	.
.	8e/J 8b- 8cc 8ee	.
=32	=32	=32
*	*ped	*
4FFF/ 4FF	8f/ 8a 8cc 8ff	.
.	8c/L 8f 8a 8cc	.
4CC/ 4C	8c/ 8f 8a 8cc	.
.	8c/J 8f 8a 8cc	.
8FF/ 8F	8c/ 8f 8a 8cc	.
8c\L 8f 8a	8r	.
8c\ 8f 8a	8.dd\L 8.ddd	.
8c\J 8f 8a	.	.
.	16cc\Jk 16ccc	.
!!LO:LB:g=original	!	!
=33	=33	=33
*	*^	*
*	*	*	*^
!	!	!	!LO:DY:a	!LO:DY:a
4FFF/ 4FF	2cc\ 2ccc	8r	sf	sf
*	*	*	*v	*v
.	.	8A/L 8c 8f	.
4CC/ 4C	.	8A/ 8c 8f	.
.	.	8A/J 8c 8f	.
8FF/ 8F	4f\ 4ff	2ryy	.
8c\L 8f 8a	.	.	.
8c\ 8f 8a	8.dd\L 8.ddd	.	.
8c\J 8f 8a	.	.	.
.	16cc\Jk 16ccc	.	.
=34	=34	=34	=34
!	!	!	!LO:DY:a
4FFF/ 4FF	2cc\ 2ccc	8r	sf
.	.	8A/L 8c 8f	.
4CC/ 4C	.	8A/ 8c 8f	.
.	.	8A/J 8c 8f	.
8FF/ 8F	4f\ 4ff	2ryy	.
8c\L 8f 8a	.	.	.
8c\ 8f 8a	8.a\L 8.aa	.	.
8c\J 8f 8a	.	.	.
.	16b-\Jk 16bb-	.	.
*	*v	*v	*
=35	=35	=35
*^	*	*
8r	4FFF/ 4FF	4cc\ 4ccc	.
8A\ 8c 8f	.	.	.
8r	4AAA/ 4AA	4dd\ 4ddd	.
8A\ 8c 8f	.	.	.
8r	4CC/ 4C	4ee\ 4eee	.
8A\ 8c 8f	.	.	.
8r	4FF/ 4F	4ff\ 4fff	.
8A\ 8c 8f	.	.	.
*v	*v	*	*
=36	=36	=36
*	*^	*
4BBB-/ 4BB-	2ff\ 2fff	8r	.
*	*tremolo	*tremolo	*
.	.	8B-/L 8d 8f 8g	.
4GG/ 4G	.	8B-/ 8d 8f 8g	.
.	.	8B-/J 8d 8f 8g	.
*	*Xtremolo	*	*
4BB-/	8B-/L 8f 8g	2ryy	.
.	8B-/J 8d 8f 8g	.	.
8.B-\L 8.d 8.f 8.g	8.ee\L 8.eee	.	.
16B-\Jk 16d 16f 16g	16dd\Jk 16ddd	.	.
!!LO:LB:g=original	!	!	!
=37	=37	=37	=37
!	!	!	!LO:DY:a
4BBB-/ 4BB-	2dd\ 2ddd	8r	sf
*	*	*Xtremolo	*
.	.	8B-/L 8d 8f 8g	.
4GG/ 4G	.	8B-/ 8d 8f 8g	.
.	.	8B-/J 8d 8f 8g	.
4BB-\ 4B-	4g\ 4gg	8r<	.
.	.	8B-</L 8d< 8f< 8g<	.
4r	8.ee\L 8.eee	8B-</ 8d< 8f< 8g<	.
.	.	8B-</J 8d< 8f< 8g<	.
.	16dd\Jk 16ddd	.	.
=38	=38	=38	=38
4BBB-/ 4BB-	2dd\ 2ddd	8r	.
.	.	8B-/L 8d 8f 8g	.
4GG/ 4G	.	8B-/ 8d 8f 8g	.
.	.	8B-/J 8d 8f 8g	.
4BB-\ 4B-	4g\ 4gg	2ryy	.
4r	8.b-\L 8.bb-	.	.
.	16cc\Jk 16ccc	.	.
*	*v	*v	*
=39	=39	=39
*^	*	*
8r	4GGG/ 4GG	4dd\ 4ddd	.
8B-\ 8d 8f 8g	.	.	.
8r	4BBB-/ 4BB-	4ee\ 4eee	.
8B-\ 8d 8f 8g	.	.	.
8r	4DD/ 4D	4ff\ 4fff	.
8B-\ 8d 8f 8g	.	.	.
8r	4GG/ 4G	4gg\ 4ggg	.
8B-\ 8d 8f 8g	.	.	.
*v	*v	*	*
=40	=40	=40
*	*^	*
8CC/ 8C	2gg\ 2ggg	8r	ff
*	*	*ped	*
8r	.	8e/ 8g 8b- 8cc	.
*tremolo	*	*tremolo	*
8G\L 8B- 8c	.	8e/L 8g 8b- 8cc	.
8G\ 8B- 8c	.	8e/ 8g 8b- 8cc	.
8G\ 8B- 8c	2ryy	8e/ 8g 8b- 8cc	.
8G\J 8B- 8c	.	8e/J 8g 8b- 8cc	.
8.G\L 8.B- 8.c 8.e	.	8.cc\L 8.ccc	.
16G\Jk 16B- 16c 16e	.	16cc\Jk 16ccc	.
*	*v	*v	*
!!LO:LB:g=original	!	!
=41	=41	=41
*^	*	*
*Xtremolo	*	*	*
8G\L 8B- 8c 8e	4ryy	4cc#X\ 4ccc#X	.
8G\J 8B- 8c 8e	.	.	.
8r	4CC/ 4C	4dd\ 4ddd	.
8G\ 8B- 8c 8e	.	.	.
8r	4CC/ 4C	4dd#X\ 4gg 4bb- 4ddd#X	.
8G\ 8B- 8c 8e	.	.	.
8r	4CC/ 4C	4ee\ 4gg 4bb- 4ccc# 4eee	.
8G\ 8B- 8c 8e	.	.	.
*v	*v	*	*
=42	=42	=42
8FFF/ 8FF	(<4gg\ [>4aa 4ccc (>4ggg	>
16A\LL 16c	.	.
[16f\JJ	.	.
8A\L 8c 8f]	8ff\) 8aa] 8ccc 8fff)	.
8A\J 8c 8f	8r	]
8FF/ 8F	((4bn\ [4ff 4bbn	>
16A\LL 16c	.	.
[16f\JJ	.	.
8A\L 8c 8f]	8cc\)) 8ff] 8aa 8ccc	.
8A\J 8c 8f	8r	]
=43	=43	=43
8CC/ 8C	(<4ee\ [<4gg [>4bb-X (>4eee	.
16G\LL 16B- 16c	.	.
[16e\JJ	.	.
8B-\L 8c 8e]	8dd\) 8gg] 8bb-] 8ddd)	.
8B-\J 8c 8e	8r	.
8C/	(<4f#X\ [<4cc [>4ee (>4ff#X	.
16G\LL 16B- 16c	.	.
[16e\JJ	.	.
8B-\L 8c 8e]	8g\) 8cc] 8ee] 8gg)	.
8B-\J 8c 8e	8r	.
=44	=44	=44
!	!LO:TX:t=P:problem:łamanie systemu	!
8FFF/ 8FF	2b-\ 2cc 2ee 2bb-	.
16F\LL 16G 16c	.	.
[16e\JJ	.	.
8G\L 8c 8e]	.	.
8G\J 8c 8e	.	.
!!LO:LB:g=original	!	!
8F\L 8A 8c 8f	8a\ 8cc 8ff 8aa	.
8F\J 8A 8c 8f	8r	.
8FF\L 8F	8.g\L 8.gg	.
8A\J 8c 8f	.	.
.	16a\Jk 16aa	.
=45	=45	=45
8C\L 8c	4b-\ 4bb-	.
8G\J 8c 8e	.	.
8C\L 8c	4cc\ 4ccc	.
8G\J 8c 8e	.	.
8BB-\L 8B-	4dd\ 4ee 4gg 4ddd	.
8G\J 8c 8e	.	.
8BB-\L 8B-	4ee\ 4gg 4ccc 4eee	.
8G\J 8c 8e	.	.
=46	=46	=46
8AA/ 8A	(<4gg\ [<4aa [>4ccc (>4ggg	.
16A\LL 16c	.	.
[16f\JJ	.	.
8A\L 8c 8f]	8ff\) 8aa] 8ccc] 8fff)	.
8A\J 8c 8f	8r	.
8BBBn/ 8BBn	(<4ee\ [<4ff [>4aa-X (>4eee	.
16F\LL 16A-X	.	.
[16d\JJ	.	.
8F\L 8A- 8d]	8dd\) 8ff] 8aa-] 8ddd)	.
8F\J 8A- 8d	8r	.
=47	=47	=47
8CC/ 8EE 8C	(<4dd\ [<4ff [>4aa (>4ddd	.
16An\LL 16c	.	.
[16f\JJ	.	.
8A\L 8c 8f]	8cc\) 8ff] 8aa] 8ccc)	.
8A\J 8c 8f	8r	.
8CCC/ 8CC	4gT\ 4gg	.
16G\LL 16B- 16c	.	.
[16e\JJ	.	.
.	16qqff#X/LL	.
.	16qqgg/JJ	.
8B-\L 8c 8e]	8.b-\L 8.bb-	.
8B-\J 8c 8e	.	.
.	16a\Jk 16aa	.
=48	=48	=48
4F\ 4A 4c	4f\ 4ff	.
4FFF/ 4FF	4ff\ 4aa 4ccc 4fff	.
8FF/ 8F	8A/ 8c 8f	.
8r	8r	.
4r	4r	.
!!LO:PB:g=original	!	!
=49:|!	=49:|!	=49:|!
*k[b-e-]	*k[b-e-]	*
*M4/4	*M4/4	*
*met(c)	*met(c)	*
*^	*^	*
!	!	!LO:TX:a:t=Trio	!	!
1ryy	2BB-\	2dd/	4F<\ 4B-< 4d 4f 4b-	.
.	.	.	4F<\ 4B-< 4d\ 4f 4b-	.
.	2EE-\	4.b-/	4BB-<\ 4E-< 4G< 4B- 4e- 4g	.
.	.	.	4BB-<\ 4E-< 4G< 4B- 4e- 4g	.
.	.	8cc/	.	.
*v	*v	*	*	*
=50	=50	=50	=50
2BB-\	2dd/	4d\ 4f 4b-	.
.	.	8.F<\L 8.B-< 8.d 8.f	.
.	.	16F<\Jk 16B-< 16d 16f	.
4F\	2r	4B-</ 4d 4f	.
4F\	.	4B-</ 4f	.
*	*v	*v	*
=51	=51	=51
4F\	2fSSS\ 2a 2ff	.
4A\ 4c	.	.
4C/	4.a\ 4.cc 4.aa	.
4B-\ 4c 4en	.	.
.	8g\ 8b- 8gg	.
=52	=52	=52
4F\	4f\ 4a 4cc 4ff	.
8A\L 8c 8e-X 8f	4.aa\ 4.fff 4.aaa	.
8A\J 8c 8e- 8f	.	.
4A\ 4c 4e- 4f	.	pp
.	8gg\L 8eee- 8ggg	.
4A\ 4c 4e- 4f	8ff\ 8ddd 8fff	.
.	8ee-\J 8ccc 8eee-	.
!!LO:LB:g=original	!	!
=53	=53	=53
*^	*^	*
4BB-\ 4F 4B-	4ryy	4dd\ 4bb- 4ddd	2.ryy	.
2.ryy	4r	4F</ 4B-< 4d< 4f 4b-	.	.
!	!	!LO:TX:t=P:problem: kropka tylko przy 4.b-	!	!
.	2EE-\	4.BB-</ 4.E-< 4.G< 4.e-/ 4.g 4.b-	.	.
.	.	.	4BB-</ 4E-< 4G< 4B- 4e- 4g	.
.	.	8cc/	.	.
=54	=54	=54	=54	=54
1ryy	2BB-\	2dd/	4F<\ 4B-< 4d 4f 4b-	.
.	.	.	8.F<\L 8.B-< 8.d 8.f	.
.	.	.	16F<\Jk 16B-< 16d 16f	.
.	2r	2r	4F<\ 4B-< 4d 4f	.
.	.	.	4F<\ 4B-< 4d 4f	.
*v	*v	*	*	*
=55	=55	=55	=55
*	*	*^	*
*>A1	*>A1	*>A1	*>A1	*>A1
4AA\ 4A	4ff/	2f\ 2a	4ryy	mf
.	16qqgg/LL	.	.	.
.	16qqff/JJ	.	.	.
4F\ 4A 4d	8.een/L	.	4.ee\	.
.	16dd/Jk	.	.	.
4AA/ 4A	4.aa/	2g\ 2a 2cc#X	.	.
.	.	.	4.ryy	.
4G\ 4A 4en	.	.	.	.
.	8cc#/	.	.	.
*	*	*v	*v	*
=56	=56	=56	=56
4D\ 4A 4d 4f 4a	4dd/	2ryy	.
8.D\L	8.A</L 8.d< 8.f 8.a 8.dd	.	.
16D\Jk 16A 16d	16f/Jk 16a 16dd	.	.
!	!	!LO:N:vis=1	!
2F\ 2c 2e-X	4.ff/	2f\ 2a	.
.	8ee-/	.	.
!!LO:LB:g=original	!	!	!
=57:|!	=57:|!	=57:|!	=57:|!
*>A2	*>A2	*>A2	*>A2
4AA\ 4A	4ff#X/	2f#X\ 2a 2dd	sf
.	16qqgg/LL	.	.
.	16qqff#/JJ	.	.
4F#X\ 4A 4d	8.een/L	.	.
.	16ff#/Jk	.	.
4AA\ 4A	4.aa-X/	2g\ 2a 2cc#X	.
4G\ 4A 4en	.	.	.
.	8cc#/	.	.
*	*v	*v	*
=58	=58	=58
4D\ 4A 4d	4f#X/ 4a 4dd	.
8.D\L 8.A 8.d	8.f#/L 8.a 8.dd	.
16D\Jk 16A 16d	16f#/Jk 16a 16dd	.
4D\ 4A 4d	4f#/ 4a 4dd	.
4r	4r	.
=59!|:	=59!|:	=59!|:
*>B	*>B	*>B
4EE-:/ 4FF: 4AA: 4E-:	4c:/ 4fn: 4a: 4ccn:	f
8.EE-/L 8.E-	8.c/L 8.f 8.a 8.cc	.
16EE-/Jk 16E-	16c/Jk 16f 16a 16cc	.
4EE-/ 4E-	8.c/L 8.f 8.a 8.cc	.
.	16d/K 16dd	.
4r	8.e-/ 8.ee-	.
.	16en/Jk 16een	.
!!LO:LB:g=original	!	!
=60	=60	=60
4DD:/ 4FF: 4BB-: 4D:	4f\ 4ff	.
8.DD/L 8.D	8.f\L 8.b- 8.ff	.
16DD/Jk 16D	16f\Jk 16b- 16ff	.
4DD/ 4D	8.f\L 8.b- 8.ff	.
.	16g\K 16gg	.
4r	8.a\ 8.aa	.
.	16b-\Jk 16bb-	.
=61	=61	=61
*	*^	*
2CC/ 2FF 2C	2ee-\ 2ff 4b-\ 4bb-	4ryy	.
.	.	4a\ 4aa	.
4FFF/ 4FF	8.ee-\L 8.ff 8.aa 8.eee-	2ryy	.
.	16cc\K 16ccc	.	.
4r	8.a\ 8.aa	.	.
.	16e-\Jk 16ee-	.	.
=62	=62	=62	=62
*^	*	*	*
4BB-/	4ryy	4cc#X/	8r	p
.	.	.	8d\ 8f	.
8r	4BB-\	4dd/	8r	.
8F/ 8B-	.	.	8d\ 8f	.
8r	4AA\	2r	8r	.
8D/ 8A	.	.	8c\ 8d 8f#X	.
8r	4GG\	.	8r	.
8D/ 8G	.	.	8B-\ 8d 8g	.
!!LO:LB:g=original	!	!	!	!
=63	=63	=63	=63	=63
8r	4FF#X\	2d/ 2dd	8ryy	.
8F#X/	.	.	8a\ 8cc	.
8r	4AA\	.	8r	.
8A/	.	.	8a\ 8cc	.
8r	4D\	8.en/L 8.een	8r	.
8A/ 8d	.	.	8a\ 8cc	.
.	.	16f#X/K 16ff#X	.	.
8r	4r	8.g/ 8.gg	8r	.
8A/ 8d	.	.	8a\ 8cc	.
.	.	16a/Jk 16aa	.	.
=64	=64	=64	=64	=64
8r	4G\	2bb-/	8r	.
8B-/ 8e-	.	.	8b-\ 8dd	.
8r	4B-\	.	8r	.
8B-/ 8e-	.	.	8b-\ 8dd	.
.	.	16qqccc/LL	.	.
.	.	16qqbb-/JJ	.	.
8r	4G\	4aa/	8r	.
8B-/ 8e-	.	.	8b-\ 8dd	.
8r	4B-\	4gg/	8r	.
8B-/ 8e-	.	.	8b-\ 8dd	.
=65	=65	=65	=65	=65
8r	4C\	4gg/	8r	.
8c/ 8en	.	.	8b-\ 8cc	.
8r	4G\	8.ffn/L	8r	.
8c/ 8e	.	.	8b-\ 8cc	.
.	.	16een/Jk	.	.
8r	4En\	4bb-/	8r	.
8c/ 8e	.	.	8b-\ 8cc	.
8r	4C\	8.gg/L	8r	.
8c/ 8e	.	.	8b-\ 8cc	.
.	.	16ee/Jk	.	.
!!LO:LB:g=original	!	!	!	!
=66	=66	=66	=66	=66
8r	4F\	2.ff/	8r	.
8c/ 8f	.	.	8a\ 8cc	.
8r	4A\	.	8r	.
8c/ 8f	.	.	8a\ 8cc	.
8r	4F\	.	8r	.
8c/ 8f	.	.	8aSsS\ 8cc	.
8r	4A\	8.aa/L	8r	.
8c/ 8f	.	.	8a\ 8cc	.
.	.	16ff/Jk	.	.
=67	=67	=67	=67	=67
8r	4G\	4een/	8r	.
8c/ 8en	.	.	8b-\ 8cc	.
8r	4B-\	[4bb-/	8r	.
8c/ 8e	.	.	8b-\ 8cc	.
8r	4C\	8.bb-/L]	8r	.
8G/ 8B- 8c	.	.	8b-\ 8cc	.
.	.	16gg/K	.	.
8r	4En\	8.ee/	8r	.
8G/ 8B- 8c	.	.	8b-\ 8cc	.
.	.	16b-/Jk	.	.
*v	*v	*	*	*
*	*v	*v	*
=68	=68	=68
8F\L	8a/	.
8c\ 8f	8r	.
8A\	2ccSSS\	.
8c\J 8f	.	.
8F\L	.	.
8c\ 8f	.	.
8A\	8.aa\L	.
8c\J 8f	.	.
.	16ff\Jk	.
!!LO:PB:g=original	!	!
=69	=69	=69
8G\L	8ff\L	.
8B-\ 8c 8en	8een\J	.
8B-\	8.b-\L 8.bb-	.
8c\J 8e	.	.
.	16g\Jk 16gg	.
8C\L	8.en/L 8.een	.
8G\ 8B-	.	.
.	16c/K 16cc	.
8C\	8.B-/ 8.b-	.
8En\J	.	.
.	16G/Jk 16g	.
=70	=70	=70
*	*^	*
4F\ 4A 4c	4f/	1ryy	.
4FF/ 4F	4f\ 4a 4cc 4ff	.	.
2F\ 2A 2c	4.f\ 2a\ 4.ff	.	sf
.	8e-\ 8ee-X	.	.
=71	=71	=71	=71
*^	*	*	*
1ryy	2BB-\	2dd/	4F<\ 4B-< 4d 4f 4b-	.
.	.	.	4F<\ 4B-< 4d 4f 4b-	.
.	2EE-\	4.b-/	4BB-<\ 4E-< 4G< 4B- 4e- 4g	.
.	.	.	4BB-<\ 4E-< 4G< 4B- 4e- 4g	.
.	.	8cc/	.	.
!!LO:LB:g=original	!	!	!	!
=72	=72	=72	=72	=72
1ryy	2BB-\	2dd/	4F<\ 4B-< 4d 4f 4b-	.
.	.	.	8.F<\L 8.B-< 8.d 8.f 8.b-	.
.	.	.	16F<\Jk 16B-< 16d 16f	.
.	2r	2r	4F</ 4B-< 4d 4f	.
.	.	.	4F</ 4B-< 4d 4f	.
*	*	*v	*v	*
=73	=73	=73	=73
4r	2F\	2aSsS\ 2ff 2aa	.
4A/ 4c 4f	.	.	.
4C/	2ryy	4.cc\ 4.aa 4.ccc	.
4B-\ 4c 4en	.	.	.
.	.	8b-\ 8gg 8bb-	.
*v	*v	*	*
=74	=74	=74
4F\	4a\ 4ff 4aa	.
8.A\L 8.c 8.e-X 8.f	4.ff\ 4.aa 4.fff	.
16A\Jk 16c 16e- 16f	.	.
4A\ 4c 4e- 4f	.	.
.	8ee-\L 8gg 8eee-	pp
4A\ 4c 4e- 4f	8dd\ 8ff 8ddd	.
.	8cc#X\J 8een 8aa#X	.
!!LO:LB:g=original	!	!
=75	=75	=75
*^	*	*
4BB-/	2ryy	2dd\ 2ff 2ddd	.
4B-\ 4d 4f	.	.	.
4ryy	2EE-\	4.b-\ 4.ee- 4.gg 4.bb- 4BB-<\ 4E-< 4G<	.
4BB-/ 4E- 4G	.	.	.
.	.	8cc\ 8ccc	.
*v	*v	*	*
=76	=76	=76
.	8qqff/ 8qqbb-	.
*	*^	*
4BBB-/ 4BB-	2dd/ 2ddd	4r	.
8.DD/L 8.D	.	8.B-/L 8.d 8.f	.
16FF/Jk 16F	.	16B-/Jk 16d 16f	.
4BB-\ 4B-	8.d/L 8.f 8.dd	2ryy	.
.	16e-/K 16ee-	.	.
4F\ 4B- 4d	8.en/ 8.een	.	.
.	16f/Jk 16ff	.	.
=77	=77	=77	=77
4FFF/ 4FF	[2g\ [2gg	4r	.
8.AAA/L 8.AA	.	8.A\L 8.c 8.e- 8.f	.
16CC/Jk 16C	.	16A\Jk 16c 16e- 16f	.
4FF/ 4F	8.g/L] 8.gg]	4A\ 4c 4e- 4f	.
.	16a/K 16aa	.	.
4F\ 4A 4c 4e- 4f	8.b-/ 8.bb-	4r	.
.	16cc/Jk 16ccc	.	.
*	*v	*v	*
!!LO:LB:g=original	!	!
=78	=78	=78
8BB-/	(<4cc#X\ [<4ff [>4bb- (>4ccc#X	>
16F\LL 16B- 16d	.	.
[16f\JJ	.	.
8B-\L 8d 8f]	8dd\) 8ff] 8bb-] 8ddd)	]
8B-\J 8d 8f	8r	.
8BB-/	(<4a\ [<4dd [>4ff (>4aa	>
16F\LL 16B- 16d	.	.
16f\JJ	.	.
8B-\L 8d 8f	8b-\) 8dd] 8ff] 8bb-)	]
8B-\J 8d 8f	8r	.
=79	=79	=79
8FF/	((4bn\ [4ff 4aa 4bbn	.
16F\LL 16B- 16e-	.	.
[16f\JJ	.	.
8F\L 8A 8e- 8f]	8cc\)) 8ff] 8aa 8ccc	.
8A\J 8c 8e- 8f	16r	.
.	16a\ 16ff	.
8F\L	8.g\L 8.gg	.
8A\ 8e- 8f	.	.
.	16a\K 16aa	.
8F\	8.b-X\ 8.bb-X	.
8A\J 8e- 8f	.	.
.	16cc\Jk 16ccc	.
=80	=80	=80
8BB-/	(<4cc#X\ [<4ff [>4bb- (>4ccc#X	.
16F\LL 16B- 16d	.	.
[16f\JJ	.	.
8F\L 8B- 8d 8f]	8dd\)) 8ff] 8bb-] 8ddd)	.
8F\J 8B- 8d 8f	8r	.
8BBB-/ 8BB-	(<4gg\ [<4bb- [>4ddd (>4ggg	.
16F\LL 16B- 16d	.	.
[16f\JJ	.	.
8F\L 8B- 8f]	8ff\) 8bb-] 8ddd] 8fff)	.
8F\J 8B- 8d 8f	8r	.
!!LO:LB:g=original	!	!
=81	=81	=81
8FF/	(<4ff\ 4aa [>4ccc 4fff	.
16A\LL 16e-	.	.
[16f\JJ	.	.
8F\L 8A 8e- 8f]	8cc\) 8ccc]	.
8F\J 8A 8e- 8f	16r	.
.	16f\ 16ff	.
8F\L	8.g\L 8.gg	.
8A\ 8c 8e- 8f	.	.
.	16a\K 16aa	.
8F\	8.b-\ 8.bb-	.
8c\J 8e- 8f	.	.
.	16cc\Jk 16ccc	.
=82	=82	=82
8BB-/	(<4cc#X\ [>4ff (>4ccc#X	.
16F\LL 16B- 16d	.	.
[16f\JJ	.	.
8F\L 8B- 8d 8f]	8dd\) 8ff] 8ddd)	.
8F\J 8B- 8d 8f	8r	.
8AA-X\L 8A-X	(<4a\ [<4dd [>4ff (>4aa	.
16D\L 16F 16B-	.	.
[16d\JJ	.	.
8D\L 8F 8B- 8d]	8b-\) 8dd] 8ff] 8bb-)	.
8D\J 8F 8B- 8d	8r	.
=83	=83	=83
8GG\L 8G	(<4ff\ [>4bb- (>4fff	.
16E-\L 16G 16B-	.	.
[16e-\JJ	.	.
8E-\L 8G 8B- 8e-]	8ee-\) 8bb-] 8eee-)	.
8E-\J 8G 8B- 8e-	8r	.
8GG-X\L 8G-X	(<4ff\ [>4bb- (>4fff	.
16G-\L 16B- 16d-X	.	.
[16en\JJ	.	.
8G-\L 8B- 8d- 8e]	8een\) 8bb-] 8eeen)	.
8G-\J 8B- 8d- 8e	8r	.
!!LO:LB:g=original	!	!
=84	=84	=84
8FF/ 8F	4gg\ 4ggg	.
16F\LL 16Bn 16d	.	.
[16f\JJ	.	.
8B\L 8d 8f]	4ffSSS\ 4fff	.
8B\J 8d 8f	.	.
4FFF/ 4FF	8.aa\L 8.ccc 8.eee-X 8.aaa	.
.	16gg\K 16ggg	.
!	!LO:TX:t=P:problem:niezgodny pion harmoniczny	!
4F\ 4A 4c 4g-X	8.ee-X\ 8.aa 8.eee-	.
.	16cc\Jk 16ccc	.
=85	=85	=85
4D\ 4F 4B- 4d	4b-\ 4dd 4ff 4bb-	.
4BBB-/ 4DD 4FF 4BB-	4gg\ 4bb- 4ddd 4ggg	.
8BB-\ 8B-	8b-\ 8bb-	.
8r	8r	.
!	!LO:TX:b:i:t=Da Capo\nMarsz	!
4r	4r	.
=:|!	=:|!	=:|!
*-	*-	*-
!!!system-decoration: {(s1,s2)}
!!!RDF**kern: > = above
!!!RDF**kern: < = below
!!!ENC: Filip Voros
!!!END: 2023-07-12
!!!ENC: Jan Barakat
!!!END: 2023-07-20
!!!YEC: Copyright 2022 Narodowy Instytut Fryderyka Chopina (https://polishscores.org)
!!!YEM: License CC-BY-4.0 (https://creativecommons.org/licenses/by/4.0)
